X: 9
T:Ghost Gulls Of Picton
M:3/4
L:1/4
Q:60
C:Martin Curtis
K:D
"D"dd>e|f<df|"G"e<dd|"D"A3|
"D"dd>e|fda|aaf|"A"e3-|e2z|
"D"d<de|!
fdf|"G"ed>d|"D"A2d|
"G"d>ed|"A"c2d/c/|"Bm"B3-|Bza|
"D"afd|"A"e<fe|"D"d3-|d3||
